signin/logo.svg

<svg width="154" height="101" viewBox="0 0 154 101" fill="none" xmlns="http://www.w3.org/2000/svg">
<path d="M12.336 85.264C11.04 85.264 9.648 85.168 8.496 84.544C7.488 83.008 6.912 76.96 6.912 74.656V74.416C10.56 74.128 14.64 74.032 18.192 73.168C18.816 73.024 19.344 72.496 19.344 71.824C19.344 71.056 18.816 70.288 18 70.288C14.688 70.288 10.368 71.248 6.864 71.536V68.464C6.864 63.328 7.344 58.288 13.584 57.568C14.016 57.52 14.496 57.52 14.928 57.52C16.272 57.52 17.52 57.664 18.864 57.664C19.68 57.664 20.208 56.944 20.208 56.176C20.208 55.36 19.488 54.976 18.576 54.784C17.664 54.592 16.752 54.496 15.792 54.496C14.928 54.496 14.064 54.592 13.248 54.688C1.392 55.984 1.296 61.792 1.296 71.824C1.296 74.944 1.44 85.696 4.416 87.28C6 88.144 8.784 88.192 10.56 88.192C12.912 88.192 22.8 87.808 22.8 85.216C22.8 84.352 22.08 83.872 21.312 83.872C19.2 83.872 15.456 85.264 12.336 85.264ZM41.5324 75.424C39.8044 75.424 32.2204 76.336 32.2204 78.448C32.2204 79.36 32.8924 79.888 33.7564 79.888C35.6284 79.888 38.8444 78.256 41.5804 78.256C41.8684 78.256 42.4924 78.256 42.8284 78.448C42.8764 78.64 42.8764 78.832 42.8764 79.024C42.8764 81.808 38.3164 85.024 35.7244 85.024C31.1644 85.024 30.0604 76.432 30.0604 73.216C30.0604 68.8 31.9804 57.616 38.0284 57.616C42.7804 57.616 39.8044 69.52 42.8284 69.52C43.6444 69.52 44.2684 68.896 44.2684 68.08C44.2684 63.808 43.9804 54.736 38.0284 54.736C27.6124 54.736 24.4924 64.096 24.4924 72.976C24.4924 80.272 27.1324 87.904 35.7244 87.904C39.9964 87.904 45.8524 83.44 45.8524 78.928C45.8524 76.288 43.8364 75.424 41.5324 75.424ZM66.6465 54.688C63.3825 54.688 65.6385 76.048 56.4225 76.048C53.4465 76.048 53.3985 70.768 53.3985 68.608C53.3985 64.816 54.0225 61.168 54.0225 57.568C54.0225 56.368 53.7345 54.688 52.1505 54.688C48.5505 54.688 47.9265 63.28 47.9265 65.824C47.9265 71.248 49.6065 78.928 56.4225 78.928C61.9425 78.928 64.7265 73.264 66.0705 68.704C65.8785 72.88 65.1585 77.824 62.5665 81.232C59.3985 85.36 54.1665 84.4 54.1665 86.56C54.1665 87.328 54.8865 87.904 55.6065 87.904C66.8385 87.904 71.7825 79.072 71.7825 68.752C71.7825 65.728 70.7745 54.688 66.6465 54.688ZM80.0426 62.992C80.0426 60.352 81.5786 57.52 84.5546 57.52C89.3546 57.52 87.4346 59.872 89.5946 59.872C90.4106 59.872 90.9866 59.056 90.9866 58.336C90.9866 55.456 86.5706 54.64 84.4586 54.64C79.8986 54.64 74.5706 58.528 74.5706 63.328C74.5706 71.872 89.5946 70.336 89.5946 78.64C89.5946 82.192 88.4906 85.024 84.5546 85.024C79.6106 85.024 77.5946 79.984 76.7306 76C76.5866 75.424 76.1066 74.752 75.4346 74.752C74.6666 74.752 73.8506 75.184 73.8506 76.048C73.8506 81.472 78.8906 87.904 84.5546 87.904C89.9306 87.904 94.9226 84.496 94.9226 78.736C94.9226 68.128 80.0426 69.52 80.0426 62.992ZM108.295 69.76C105.223 69.76 103.639 73.504 102.679 75.712L102.583 75.904L102.727 72.832C102.967 67.936 103.111 64.288 103.111 61.696V59.632C103.111 57.232 102.295 56.752 101.383 56.752C99.7988 56.752 99.1268 58.576 98.9348 59.152C97.9268 61.984 96.9668 68.56 96.9668 74.704C96.9668 81.712 97.5428 88 100.423 88C101.191 88 101.719 87.52 101.911 86.896C101.959 86.56 102.919 83.104 104.215 79.6C106.615 73.12 108.007 72.64 108.151 72.64C108.823 72.88 109.015 76.144 109.015 76.672V77.344C109.015 80.272 108.535 83.632 108.535 85.36V85.984C108.535 87.088 109.063 88 110.119 88C111.511 88 114.631 85.312 114.631 78.544C114.631 75.136 113.335 69.712 108.295 69.76ZM129.575 73.6C129.047 71.536 126.983 69.808 124.967 69.808C120.167 69.808 116.279 73.312 116.039 78.832V79.072C116.039 83.872 119.351 87.712 124.103 88H124.391C128.999 88 131.927 83.2 131.927 78.4C131.927 76.576 131.543 73.6 129.815 73.6H129.575ZM127.655 83.152C127.031 84.064 126.023 85.12 124.487 85.12H124.247C123.143 84.976 121.703 82.864 121.703 79.36C121.703 76 123.095 72.688 124.919 72.688C125.351 72.688 126.887 73.264 126.887 75.04C126.887 75.808 127.511 76.48 128.327 76.48C128.471 76.48 128.663 76.432 128.807 76.384C128.951 77.008 129.047 77.68 129.047 78.352C129.047 80.08 128.567 81.808 127.655 83.152ZM150.84 71.728C149.544 70.48 147.768 69.808 145.704 69.808C143.784 69.808 141.816 71.2 140.04 73.936C139.56 71.152 139.8 69.76 138.024 69.76C136.008 69.76 134.28 73.312 134.28 89.68C134.28 98.848 135.192 100.192 136.824 100.192C138.12 100.192 139.608 99.088 139.944 87.232C140.712 87.712 141.576 88 142.44 88C146.856 88 149.304 85.888 150.6 84.112C152.04 82.144 152.808 79.504 152.808 76.672C152.808 74.704 152.088 72.928 150.84 71.728ZM140.136 79.648C143.112 73.456 145.08 72.688 145.704 72.688C146.616 72.688 147.288 74.368 147.288 76.72C147.288 79.648 146.28 85.12 142.44 85.12C141.672 85.12 140.52 84.304 140.52 82.576C140.52 82.192 140.376 81.856 140.136 81.616V79.648Z" fill="#2C5644"/>
<path d="M36 40.5463C49.3333 12.213 84.2 -27.4537 117 40.5463" stroke="#2C5644" stroke-width="5"/>
</svg>

<svg width="154" height="101" fill="none" xmlns="http://www.w3.org/2000/svg"><path d="M12.336 85.264c-1.296 0-2.688-.096-3.84-.72-1.008-1.536-1.584-7.584-1.584-9.888v-.24c3.648-.288 7.728-.384 11.28-1.248.624-.144 1.152-.672 1.152-1.344 0-.768-.528-1.536-1.344-1.536-3.312 0-7.632.96-11.136 1.248v-3.072c0-5.136.48-10.176 6.72-10.896.432-.048.912-.048 1.344-.048 1.344 0 2.592.144 3.936.144.816 0 1.344-.72 1.344-1.488 0-.816-.72-1.2-1.632-1.392a13.364 13.364 0 0 0-2.784-.288c-.864 0-1.728.096-2.544.192C1.392 55.984 1.296 61.792 1.296 71.824c0 3.12.144 13.872 3.12 15.456 1.584.864 4.368.912 6.144.912 2.352 0 12.24-.384 12.24-2.976 0-.864-.72-1.344-1.488-1.344-2.112 0-5.856 1.392-8.976 1.392Zm29.196-9.84c-1.728 0-9.312.912-9.312 3.024 0 .912.672 1.44 1.536 1.44 1.872 0 5.088-1.632 7.824-1.632.288 0 .912 0 1.248.192.048.192.048.384.048.576 0 2.784-4.56 6-7.152 6-4.56 0-5.664-8.592-5.664-11.808 0-4.416 1.92-15.6 7.968-15.6 4.752 0 1.776 11.904 4.8 11.904.816 0 1.44-.624 1.44-1.44 0-4.272-.288-13.344-6.24-13.344-10.416 0-13.536 9.36-13.536 18.24 0 7.296 2.64 14.928 11.232 14.928 4.272 0 10.128-4.464 10.128-8.976 0-2.64-2.016-3.504-4.32-3.504Zm25.115-20.736c-3.265 0-1.009 21.36-10.225 21.36-2.975 0-3.023-5.28-3.023-7.44 0-3.792.623-7.44.623-11.04 0-1.2-.288-2.88-1.871-2.88-3.6 0-4.225 8.592-4.225 11.136 0 5.424 1.68 13.104 8.496 13.104 5.52 0 8.305-5.664 9.648-10.224-.191 4.176-.911 9.12-3.503 12.528-3.169 4.128-8.4 3.168-8.4 5.328 0 .768.72 1.344 1.44 1.344 11.231 0 16.175-8.832 16.175-19.152 0-3.024-1.007-14.064-5.135-14.064Zm13.396 8.304c0-2.64 1.536-5.472 4.512-5.472 4.8 0 2.88 2.352 5.04 2.352.816 0 1.392-.816 1.392-1.536 0-2.88-4.416-3.696-6.528-3.696-4.56 0-9.888 3.888-9.888 8.688 0 8.544 15.024 7.008 15.024 15.312 0 3.552-1.104 6.384-5.04 6.384-4.944 0-6.96-5.04-7.824-9.024-.144-.576-.624-1.248-1.296-1.248-.768 0-1.584.432-1.584 1.296 0 5.424 5.04 11.856 10.704 11.856 5.376 0 10.368-3.408 10.368-9.168 0-10.608-14.88-9.216-14.88-15.744Zm28.252 6.768c-3.072 0-4.656 3.744-5.616 5.952l-.096.192.144-3.072c.24-4.896.384-8.544.384-11.136v-2.064c0-2.4-.816-2.88-1.728-2.88-1.584 0-2.256 1.824-2.448 2.4-1.008 2.832-1.968 9.408-1.968 15.552 0 7.008.576 13.296 3.456 13.296.768 0 1.296-.48 1.488-1.104.048-.336 1.008-3.792 2.304-7.296 2.4-6.48 3.792-6.96 3.936-6.96.672.24.864 3.504.864 4.032v.672c0 2.928-.48 6.288-.48 8.016v.624c0 1.104.528 2.016 1.584 2.016 1.392 0 4.512-2.688 4.512-9.456 0-3.408-1.296-8.832-6.336-8.784Zm21.28 3.84c-.528-2.064-2.592-3.792-4.608-3.792-4.8 0-8.688 3.504-8.928 9.024v.24c0 4.8 3.312 8.64 8.064 8.928h.288c4.608 0 7.536-4.8 7.536-9.6 0-1.824-.384-4.8-2.112-4.8h-.24Zm-1.92 9.552c-.624.912-1.632 1.968-3.168 1.968h-.24c-1.104-.144-2.544-2.256-2.544-5.76 0-3.36 1.392-6.672 3.216-6.672.432 0 1.968.576 1.968 2.352 0 .768.624 1.44 1.44 1.44.144 0 .336-.048.48-.096.144.624.24 1.296.24 1.968 0 1.728-.48 3.456-1.392 4.8Zm23.185-11.424c-1.296-1.248-3.072-1.92-5.136-1.92-1.92 0-3.888 1.392-5.664 4.128-.48-2.784-.24-4.176-2.016-4.176-2.016 0-3.744 3.552-3.744 19.92 0 9.168.912 10.512 2.544 10.512 1.296 0 2.784-1.104 3.12-12.96.768.48 1.632.768 2.496.768 4.416 0 6.864-2.112 8.16-3.888 1.44-1.968 2.208-4.608 2.208-7.44 0-1.968-.72-3.744-1.968-4.944Zm-10.704 7.92c2.976-6.192 4.944-6.96 5.568-6.96.912 0 1.584 1.68 1.584 4.032 0 2.928-1.008 8.4-4.848 8.4-.768 0-1.92-.816-1.92-2.544 0-.384-.144-.72-.384-.96v-1.968Z" fill="#2C5644"/><path d="M36 40.546c13.333-28.333 48.2-68 81 0" stroke="#2C5644" stroke-width="5"/></svg>
